X:1
T:O Woman of the House, Is Not That Pleasant!
L:1/8
Q:1/4=162
M:6/8
I:linebreak $
K:F
V:1 treble 
V:1
 z3 z2 F | F>GA B2 c | G2 F F2 c | c>de f2 g | d2 c c2 c | cde f2 d | _edc B2 G | Bcd _e2 c |$ %8
 f2 c BGE | F>GA B2 c | G2 F F2 |] %11
